Newaita-dark/actions/16/draw-triangle1.svg

<svg height="16" viewBox="0 0 16 16" width="16" xmlns="http://www.w3.org/2000/svg"><path d="m2.648438 8.09375c.011718.226562.136718.429688.332031.542969l9.261719 5.289062c.203124.117188.453124.117188.65625 0 .203124-.117187.328124-.335937.328124-.570312v-10.585938c0-.234375-.125-.449219-.328124-.566406-.203126-.121094-.453126-.121094-.65625-.003906l-9.261719 5.292969c-.214844.121093-.34375.355468-.332031.601562zm1.984374-.03125 7.277344-4.15625v8.316406zm0 0" fill="#e0e0e0"/></svg>

<?xml version="1.0" encoding="UTF-8"?>
<svg xmlns="http://www.w3.org/2000/svg" xmlns:xlink="http://www.w3.org/1999/xlink" width="16px" height="16px" viewBox="0 0 16 16" version="1.1">
<g id="surface1">
<path style=" stroke:none;fill-rule:nonzero;fill:rgb(87.843138%,87.843138%,87.843138%);fill-opacity:1;" d="M 2.648438 8.09375 C 2.660156 8.320312 2.785156 8.523438 2.980469 8.636719 L 12.242188 13.925781 C 12.445312 14.042969 12.695312 14.042969 12.898438 13.925781 C 13.101562 13.808594 13.226562 13.589844 13.226562 13.355469 L 13.226562 2.769531 C 13.226562 2.535156 13.101562 2.320312 12.898438 2.203125 C 12.695312 2.082031 12.445312 2.082031 12.242188 2.199219 L 2.980469 7.492188 C 2.765625 7.613281 2.636719 7.847656 2.648438 8.09375 Z M 4.632812 8.0625 L 11.910156 3.90625 L 11.910156 12.222656 Z M 4.632812 8.0625 "/>
</g>
</svg>
